%
(Header)
(Generated by gcodetools from Inkscape.)
(Using default header. To add your own header create file "header" in the output dir.)
M3
(Header end.)
G21 (All units in mm)

(Start cutting path id: path4159)
(Change tool to Default tool)

G00 Z5.000000
G00 X312.90415Y31.94101

G01 Z-0.125000 F3000.0(Penetrate)
G01 X312.90415Y65.344595Z-0.0125 F4000.000000
G01 X323.04651Y65.344595Z-0.0125
G01 X323.04651Y-20.424474999999997Z-0.0125
G01 X312.90415Y-20.424474999999997Z-0.0125
G01 X312.90415Y-11.16406Z-0.0125
G02 X309.13894Y-16.095305Z-0.0125 I-21.264694999999996J12.333395
G02 X304.80128Y-19.37715Z-0.0125 I-13.44979J13.26929
G02 X299.76114Y-21.28005Z-0.0125 I-9.353615J17.148295
G02 X293.115515Y-22.022979999999997Z-0.0125 I-6.645624999999999J29.351515
G02 X283.0544Y-19.692955Z-0.0125 I0.0J22.887085
G02 X274.870285Y-13.093330000000002Z-0.0125 I10.427095J21.304835
G02 X269.89103Y-3.4658599999999984Z-0.0125 I22.871925J17.93054
G02 X267.86985000000004Y10.388405Z-0.0125 I46.471689999999995J13.854264999999998
G02 X269.89103Y24.242670000000004Z-0.0125 I48.49287J0.0
G02 X274.870285Y33.87014Z-0.0125 I27.851184999999997J-8.30307
G02 X283.054425Y40.469879999999996Z-0.0125 I18.611425J-14.70515
G02 X293.115515Y42.799935Z-0.0125 I10.06109J-20.55668
G02 X299.75397999999996Y42.042719999999996Z-0.0125 I-0.0J-29.478165
G02 X304.80128Y40.098925Z-0.0125 I-4.350085J-18.8204
G02 X309.133785Y36.861745Z-0.0125 I-8.758669999999999J-16.24002
G02 X312.90415Y31.94101Z-0.0125 I-17.199485000000003J-17.083425000000002
G01 X312.90415Y31.94101Z-0.0125
G00 Z5.000000

(End cutting path id: path4159)


(Start cutting path id: path4159)
(Change tool to Default tool)

G00 Z5.000000
G00 X278.342945Y10.388405

G01 Z-0.125000 F3000.0(Penetrate)
G03 X279.718345Y-0.35989499999999897Z-0.0125 I42.684965000000005J-0.0 F4000.000000
G03 X282.91803500000003Y-7.195309999999999Z-0.0125 I20.03985J5.21415
G03 X288.409895Y-11.83789Z-0.0125 I12.308405J8.99046
G03 X295.59598Y-13.534299999999998Z-0.0125 I7.186085J14.372125
G03 X302.78208Y-11.83789Z-0.0125 I0.0J16.068575
G03 X308.27394Y-7.195309999999999Z-0.0125 I-6.816535J13.633035
G03 X311.51390499999997Y-0.35076999999999803Z-0.0125 I-16.704265J12.096325
G03 X312.90415Y10.388405Z-0.0125 I-40.78318J10.739175000000001
G03 X311.51025Y21.12323Z-0.0125 I-42.032955J-0.0
G03 X308.27394Y27.917085000000004Z-0.0125 I-19.639955J-5.1879
G03 X302.772175Y32.603905Z-0.0125 I-12.39089J-8.972809999999999
G03 X295.59598Y34.311115Z-0.0125 I-7.176195J-14.228825
G03 X288.4198Y32.603905Z-0.0125 I0.0J-15.93599
G03 X282.91803500000003Y27.917085000000004Z-0.0125 I6.889135J-13.65964
G03 X279.721975Y21.132419999999996Z-0.0125 I16.536424999999998J-11.934965
G03 X278.342945Y10.388405Z-0.0125 I41.163875000000004J-10.744015000000001
G01 X278.342945Y10.388405Z-0.0125
G00 Z5.000000

(End cutting path id: path4159)


(Start cutting path id: path4157)
(Change tool to Default tool)

G00 Z5.000000
G00 X240.970545Y65.344595

G01 Z-0.125000 F3000.0(Penetrate)
G01 X251.112905Y65.344595Z-0.0125 F4000.000000
G01 X251.112905Y-20.424474999999997Z-0.0125
G01 X240.970545Y-20.424474999999997Z-0.0125
G01 X240.970545Y65.344595Z-0.0125
G01 X240.970545Y65.344595Z-0.0125
G00 Z5.000000

(End cutting path id: path4157)


(Start cutting path id: path4155)
(Change tool to Default tool)

G00 Z5.000000
G00 X230.221855Y31.830664999999996

G01 Z-0.125000 F3000.0(Penetrate)
G03 X228.45557Y32.674459999999996Z-0.0125 I-6.11653J-10.532919999999999 F4000.000000
G03 X226.47359Y33.26393Z-0.0125 I-4.854265J-12.69483
G03 X224.472595Y33.624894999999995Z-0.0125 I-3.711995J-14.850624999999999
G03 X222.06387Y33.759935Z-0.0125 I-2.408725J-21.414705
G03 X214.218995Y32.16205000000001Z-0.0125 I-0.0J-20.056295
G03 X208.834705Y28.137505000000004Z-0.0125 I5.530685J-13.013295
G03 X205.654155Y22.070749999999997Z-0.0125 I12.997485J-10.681145
G03 X204.259615Y12.097259999999999Z-0.0125 I34.967J-9.97349
G01 X204.259615Y-20.424474999999997Z-0.0125
G01 X194.062135Y-20.424474999999997Z-0.0125
G01 X194.062135Y41.311635Z-0.0125
G01 X204.259615Y41.311635Z-0.0125
G01 X204.259615Y31.720455Z-0.0125
G02 X208.06546500000002Y36.714200000000005Z-0.0125 I20.398575J-11.59909
G02 X212.582965Y40.043755000000004Z-0.0125 I13.25573J-13.25582
G02 X217.90562Y42.020084999999995Z-0.0125 I9.787519999999999J-18.204075
G02 X225.04042499999997Y42.799935Z-0.0125 I7.134805J-32.248065000000004
G02 X226.08531499999998Y42.76266Z-0.0125 I-0.0J-14.66424
G02 X227.35553500000003Y42.634555Z-0.0125 I-1.557865J-21.807824999999998
G02 X228.61915500000003Y42.49305Z-0.0125 I-2.207145J-25.42261
G02 X230.16672499999999Y42.248615Z-0.0125 I-5.26965J-38.384235000000004
G01 X230.2219Y31.830664999999996Z-0.0125
G01 X230.221855Y31.830664999999996Z-0.0125
G00 Z5.000000

(End cutting path id: path4155)


(Start cutting path id: path4153)
(Change tool to Default tool)

G00 Z5.000000
G00 X149.35857Y34.200905

G01 Z-0.125000 F3000.0(Penetrate)
G03 X142.06123499999995Y32.491445Z-0.0125 I-0.0J-16.430115 F4000.000000
G03 X136.46012499999998Y27.806879999999996Z-0.0125 I6.92635J-13.97228
G03 X133.137385Y20.996415Z-0.0125 I16.218615J-12.12865
G03 X131.71967999999998Y10.388405Z-0.0125 I38.978485J-10.60801
G03 X133.11898999999997Y-0.23313499999999987Z-0.0125 I41.01139500000001J0.0
G03 X136.40501Y-7.0851Z-0.0125 I19.930205J5.3440650000000005
G03 X141.99904500000002Y-11.71991Z-0.0125 I12.400025J9.273050000000001
G03 X149.35857Y-13.424095000000001Z-0.0125 I7.3595299999999995J15.039
G03 X156.60363500000003Y-11.72032Z-0.0125 I-0.0J16.2562
G03 X162.201885Y-7.029925000000001Z-0.0125 I-6.976459999999999J14.012899999999998
G03 X165.53127000000003Y-0.16987499999999933Z-0.0125 I-16.550665J12.270475000000001
G03 X166.94234Y10.388405Z-0.0125 I-38.795335J10.55828
G03 X165.53420000000003Y20.892625000000002Z-0.0125 I-39.882870000000004J-0.0
G03 X162.201885Y27.751704999999998Z-0.0125 I-19.919235J-5.438269999999999
G03 X156.59380499999997Y32.48635Z-0.0125 I-12.657369999999998J-9.30372
G03 X149.35857Y34.200905Z-0.0125 I-7.235234999999999J-14.408665000000001
G01 X149.35857Y34.200905Z-0.0125
G00 Z5.000000

(End cutting path id: path4153)


(Start cutting path id: path4153)
(Change tool to Default tool)

G00 Z5.000000
G00 X149.35857Y42.799935

G01 Z-0.125000 F3000.0(Penetrate)
G02 X161.49586999999997Y40.38792Z-0.0125 I0.0J-31.743575 F4000.000000
G02 X170.139385Y34.200905Z-0.0125 I-8.955594999999999J-21.64251
G02 X175.46620500000003Y24.763765Z-0.0125 I-19.830295J-17.415205
G02 X177.69103Y10.388405Z-0.0125 I-45.329625J-14.375359999999999
G02 X175.473685Y-3.938609999999998Z-0.0125 I-47.394524999999994J0.0
G02 X170.139385Y-13.424095000000001Z-0.0125 I-25.455785J8.07278
G02 X161.49589499999996Y-19.611Z-0.0125 I-17.59893J15.455589999999999
G02 X149.35857Y-22.022979999999997Z-0.0125 I-12.137325J29.332105
G02 X137.16821500000003Y-19.606385Z-0.0125 I0.0J31.955019999999998
G02 X128.522625Y-13.424095000000001Z-0.0125 I8.916505J21.60556
G02 X123.22951000000003Y-3.9483900000000016Z-0.0125 I20.205785J17.50314
G02 X121.02609999999999Y10.388405Z-0.0125 I45.540405J14.336795
G02 X123.23695000000001Y24.77361Z-0.0125 I47.905035J0.0
G02 X128.522625Y34.200905Z-0.0125 I25.198705J-7.932924999999999
G02 X137.16824000000003Y40.38331Z-0.0125 I17.562269999999998J-15.423169999999999
G02 X149.35857Y42.799935Z-0.0125 I12.19033J-29.537875
G01 X149.35857Y42.799935Z-0.0125
G00 Z5.000000

(End cutting path id: path4153)


(Start cutting path id: path4151)
(Change tool to Default tool)

G00 Z5.000000
G00 X27.154145000000014Y41.311635

G01 Z-0.125000 F3000.0(Penetrate)
G01 X37.29650999999997Y41.311635Z-0.0125 F4000.000000
G01 X49.97444999999999Y-6.864545Z-0.0125
G01 X62.597280000000026Y41.311635Z-0.0125
G01 X74.55866Y41.311635Z-0.0125
G01 X87.23660500000001Y-6.864545Z-0.0125
G01 X99.85942999999999Y41.311635Z-0.0125
G01 X110.00179500000002Y41.311635Z-0.0125
G01 X93.85119000000003Y-20.424474999999997Z-0.0125
G01 X81.88982000000003Y-20.424474999999997Z-0.0125
G01 X68.60553500000002Y30.177125Z-0.0125
G01 X55.26612Y-20.424474999999997Z-0.0125
G01 X43.30475Y-20.424474999999997Z-0.0125
G01 X27.154145000000014Y41.311635Z-0.0125
G01 X27.154145000000014Y41.311635Z-0.0125
G00 Z5.000000

(End cutting path id: path4151)


(Start cutting path id: path4149)
(Change tool to Default tool)

G00 Z5.000000
G00 X-47.97650000000001Y34.200905

G01 Z-0.125000 F3000.0(Penetrate)
G03 X-55.27383499999999Y32.491445Z-0.0125 I-0.0J-16.430115 F4000.000000
G03 X-60.87494499999998Y27.806879999999996Z-0.0125 I6.92635J-13.97228
G03 X-64.197685Y20.996415Z-0.0125 I16.218615J-12.12865
G03 X-65.61538999999999Y10.388405Z-0.0125 I38.978485J-10.60801
G03 X-64.21607999999999Y-0.23313499999999987Z-0.0125 I41.01139500000001J-0.0
G03 X-60.93005999999999Y-7.0851Z-0.0125 I19.930205J5.3440650000000005
G03 X-55.336029999999994Y-11.71991Z-0.0125 I12.400025J9.273050000000001
G03 X-47.97650000000001Y-13.424095000000001Z-0.0125 I7.3595299999999995J15.039
G03 X-40.731435000000005Y-11.72032Z-0.0125 I-0.0J16.2562
G03 X-35.133185000000005Y-7.029925000000001Z-0.0125 I-6.976459999999999J14.012899999999998
G03 X-31.803804999999983Y-0.16987499999999933Z-0.0125 I-16.550665J12.270475000000001
G03 X-30.392730000000014Y10.388405Z-0.0125 I-38.795335J10.55828
G03 X-31.800870000000003Y20.892625000000002Z-0.0125 I-39.882870000000004J-0.0
G03 X-35.133185000000005Y27.751704999999998Z-0.0125 I-19.919235J-5.438269999999999
G03 X-40.741264999999984Y32.48635Z-0.0125 I-12.657369999999998J-9.30372
G03 X-47.97650000000001Y34.200905Z-0.0125 I-7.235234999999999J-14.408665000000001
G01 X-47.97650000000001Y34.200905Z-0.0125
G00 Z5.000000

(End cutting path id: path4149)


(Start cutting path id: path4149)
(Change tool to Default tool)

G00 Z5.000000
G00 X-47.97650000000001Y42.799935

G01 Z-0.125000 F3000.0(Penetrate)
G02 X-35.83919999999999Y40.38792Z-0.0125 I0.0J-31.743575 F4000.000000
G02 X-27.19568500000001Y34.200905Z-0.0125 I-8.955594999999999J-21.64251
G02 X-21.868869999999987Y24.763765Z-0.0125 I-19.830295J-17.415205
G02 X-19.644039999999983Y10.388405Z-0.0125 I-45.329625J-14.375359999999999
G02 X-21.861384999999984Y-3.938609999999998Z-0.0125 I-47.394524999999994J0.0
G02 X-27.19568500000001Y-13.424095000000001Z-0.0125 I-25.455785J8.07278
G02 X-35.83917499999998Y-19.611Z-0.0125 I-17.59893J15.455589999999999
G02 X-47.97650000000001Y-22.022979999999997Z-0.0125 I-12.137325J29.332105
G02 X-60.16685500000001Y-19.606385Z-0.0125 I0.0J31.955019999999998
G02 X-68.81244500000001Y-13.424095000000001Z-0.0125 I8.916505J21.60556
G02 X-74.10556Y-3.9483900000000016Z-0.0125 I20.205785J17.50314
G02 X-76.30897000000002Y10.388405Z-0.0125 I45.540405J14.336795
G02 X-74.09812Y24.77361Z-0.0125 I47.905035J0.0
G02 X-68.81244500000001Y34.200905Z-0.0125 I25.198705J-7.932924999999999
G02 X-60.166830000000004Y40.38331Z-0.0125 I17.562269999999998J-15.423169999999999
G02 X-47.97650000000001Y42.799935Z-0.0125 I12.19033J-29.537875
G01 X-47.97650000000001Y42.799935Z-0.0125
G00 Z5.000000

(End cutting path id: path4149)


(Start cutting path id: path4147)
(Change tool to Default tool)

G00 Z5.000000
G00 X-103.20827999999999Y65.344595

G01 Z-0.125000 F3000.0(Penetrate)
G01 X-93.06591499999999Y65.344595Z-0.0125 F4000.000000
G01 X-93.06591499999999Y-20.424474999999997Z-0.0125
G01 X-103.20827999999999Y-20.424474999999997Z-0.0125
G01 X-103.20827999999999Y65.344595Z-0.0125
G01 X-103.20827999999999Y65.344595Z-0.0125
G00 Z5.000000

(End cutting path id: path4147)


(Start cutting path id: path4145)
(Change tool to Default tool)

G00 Z5.000000
G00 X-134.517305Y65.344595

G01 Z-0.125000 F3000.0(Penetrate)
G01 X-124.374945Y65.344595Z-0.0125 F4000.000000
G01 X-124.374945Y-20.424474999999997Z-0.0125
G01 X-134.517305Y-20.424474999999997Z-0.0125
G01 X-134.517305Y65.344595Z-0.0125
G01 X-134.517305Y65.344595Z-0.0125
G00 Z5.000000

(End cutting path id: path4145)


(Start cutting path id: path4143)
(Change tool to Default tool)

G00 Z5.000000
G00 X-151.16400000000002Y12.979205

G01 Z-0.125000 F3000.0(Penetrate)
G01 X-151.16400000000002Y8.018160000000002Z-0.0125 F4000.000000
G01 X-197.79681500000004Y8.018160000000002Z-0.0125
G03 X-195.621935Y-1.762229999999998Z-0.0125 I32.23362J2.03583
G03 X-191.51296000000002Y-7.9670450000000015Z-0.0125 I16.58351J6.51905
G03 X-185.195655Y-11.835205Z-0.0125 I11.965565J12.448984999999999
G03 X-175.748205Y-13.424095000000001Z-0.0125 I9.44745J27.292550000000002
G03 X-169.952585Y-13.058045Z-0.0125 I-0.0J46.06339
G03 X-164.44829Y-11.99097Z-0.0125 I-5.402535J42.59796
G03 X-159.0611Y-10.23657Z-0.0125 I-11.801364999999999J45.386505
G03 X-153.53422999999998Y-7.691455Z-0.0125 I-19.825335J50.325430000000004
G01 X-153.53422999999998Y-17.282635Z-0.0125
G02 X-159.076565Y-19.326595Z-0.0125 I-24.086945J56.777215
G02 X-164.72389499999997Y-20.810415Z-0.0125 I-18.11884J57.47069
G02 X-170.488435Y-21.71802Z-0.0125 I-11.55405J54.62391
G02 X-176.35454Y-22.022979999999997Z-0.0125 I-5.866105J56.266165
G02 X-190.118415Y-19.57672Z-0.0125 I0.0J39.94431
G02 X-199.78118999999998Y-13.424095000000001Z-0.0125 I9.242004999999999J25.17875
G02 X-205.937815Y-3.8134250000000014Z-0.0125 I18.85788J18.857725000000002
G02 X-208.38015Y9.837224999999998Z-0.0125 I36.926809999999996J13.650649999999999
G02 X-206.02882499999998Y24.07913Z-0.0125 I44.307075J-0.0
G02 X-200.22216Y33.87014Z-0.0125 I26.092654999999997J-8.857165
G02 X-190.91720500000002Y40.312285Z-0.0125 I18.94812J-17.427385
G02 X-178.11843Y42.799935Z-0.0125 I12.79878J-31.680555
G02 X-166.665705Y40.548535Z-0.0125 I0.0J-30.255290000000002
G02 X-158.44004Y34.752085Z-0.0125 I-8.51263J-20.81486
G02 X-153.272865Y25.943414999999995Z-0.0125 I-18.28511J-16.645935
G02 X-151.16400000000002Y12.979205Z-0.0125 I-38.794185J-12.964205
G01 X-151.16400000000002Y12.979205Z-0.0125
G00 Z5.000000

(End cutting path id: path4143)


(Start cutting path id: path4143)
(Change tool to Default tool)

G00 Z5.000000
G00 X-161.30636500000003Y15.955659999999998

G01 Z-0.125000 F3000.0(Penetrate)
G03 X-162.697165Y23.768965Z-0.0125 I-24.462615J-0.324025 F4000.000000
G03 X-165.99169Y29.240005Z-0.0125 I-14.940945000000001J-5.269605
G03 X-171.11541000000003Y32.834044999999996Z-0.0125 I-10.591410000000002J-9.65002
G03 X-178.00818499999997Y34.200905Z-0.0125 I-6.892775J-16.695955
G03 X-185.96014Y32.841409999999996Z-0.0125 I0.0J-23.935985
G03 X-191.62320499999998Y29.405384999999995Z-0.0125 I5.36101J-15.22051
G03 X-195.41463499999998Y23.9902Z-0.0125 I11.292549999999999J-11.941325
G03 X-197.46608500000002Y15.900629999999998Z-0.0125 I24.04147J-10.401629999999999
G01 X-161.30636500000003Y15.955659999999998Z-0.0125
G01 X-161.30636500000003Y15.955659999999998Z-0.0125
G00 Z5.000000

(End cutting path id: path4143)


(Start cutting path id: path4141)
(Change tool to Default tool)

G00 Z5.000000
G00 X-288.416605Y61.87194999999999

G01 Z-0.125000 F3000.0(Penetrate)
G01 X-277.28206Y61.87194999999999Z-0.0125 F4000.000000
G01 X-277.28206Y28.137505000000004Z-0.0125
G01 X-236.822855Y28.137505000000004Z-0.0125
G01 X-236.822855Y61.87194999999999Z-0.0125
G01 X-225.68831Y61.87194999999999Z-0.0125
G01 X-225.68831Y-20.424474999999997Z-0.0125
G01 X-236.822855Y-20.424474999999997Z-0.0125
G01 X-236.822855Y18.766879999999997Z-0.0125
G01 X-277.28206Y18.766879999999997Z-0.0125
G01 X-277.28206Y-20.424474999999997Z-0.0125
G01 X-288.416605Y-20.424474999999997Z-0.0125
G01 X-288.416605Y61.87194999999999Z-0.0125
G01 X-288.416605Y61.87194999999999Z-0.0125
G00 Z5.000000

(End cutting path id: path4141)


(Footer)
M5
G00 X-300.0Y-30.0
M2
(Using default footer. To add your own footer create file "footer" in the output dir.)
(end)
%